X: 20575
T: BILLY BARLOW
C:
%R: jig
B: Elias Howe "The Musician's Companion" 1843 p.57 #5
S: http://imslp.org/wiki/The_Musician's_Companion_(Howe,_Elias)
Z: 2015 John Chambers <jc:trillian.mit.edu>
M: 6/8
L: 1/8
K: E
% - - - - - - - - - - - - - - - - - - - - - - - - -
B |\
e3 b2a | gfe ^def | gfe fe^d | efg B2B |\
e3 b2a | gfe ^def | gfe edc | BGE E2 :|
|: G/A/ |\
BGE BGE | BGE E>FG | AFD AFD | AFD DEF |\
GGG A2A | B^c^d e2f | gfe edB | BGE E2 :|
% - - - - - - - - - - - - - - - - - - - - - - - - -

%%sep 1 1 500

